X:601
T: VOM HIMMEL HOCH DA KOMM ICH HER
N: E1928
O: Europa, Mitteleuropa, Deutschland
R: geistlich, Fest - Lied, Weihnachten; Kinder - Lied
M: 4/4
L: 1/8
K: C
c | B2A2B2G2 | A2B2c2z
c | c2G2G2E2 | G2F2E2z
E | A2A2G2B2 | c2A2G2z
c | B2A2G2G2 | FED2C2z

